src/assets/img/tail.svg

<svg width="35" height="21" viewBox="0 0 35 21" fill="none" xmlns="http://www.w3.org/2000/svg">
<g id="tailwind.79614a5f61617ba49a0891494521226b.svg" clip-path="url(#clip0_1_55)">
<g id="Clip path group">
<mask id="mask0_1_55" style="mask-type:luminance" maskUnits="userSpaceOnUse" x="0" y="0" width="35" height="21">
<g id="prefix__clip0">
<path id="Vector" d="M0.0499878 0.111084H34.05V20.5111H0.0499878V0.111084Z" fill="white"/>
</g>
</mask>
<g mask="url(#mask0_1_55)">
<g id="Group">
<path id="Vector_2" fill-rule="evenodd" clip-rule="evenodd" d="M17.05 0.111084C12.5167 0.111084 9.68332 2.37775 8.54999 6.91108C10.25 4.64442 12.2333 3.79442 14.5 4.36108C15.7932 4.68408 16.7175 5.62286 17.7407 6.66112C19.4073 8.35294 21.3365 10.3111 25.55 10.3111C30.0833 10.3111 32.9167 8.04442 34.05 3.51108C32.35 5.77775 30.3667 6.62775 28.1 6.06108C26.8067 5.73808 25.8824 4.79931 24.8593 3.76105C23.1927 2.06923 21.2635 0.111084 17.05 0.111084ZM8.54999 10.3111C4.01665 10.3111 1.18332 12.5778 0.0499878 17.1111C1.74999 14.8444 3.73332 13.9944 5.99999 14.5611C7.29325 14.8847 8.21754 15.8229 9.24069 16.8611C10.9073 18.5529 12.8365 20.5111 17.05 20.5111C21.5833 20.5111 24.4167 18.2444 25.55 13.7111C23.85 15.9778 21.8667 16.8278 19.6 16.2611C18.3067 15.9381 17.3824 14.9993 16.3593 13.961C14.6927 12.2692 12.7635 10.3111 8.54999 10.3111Z" fill="#38BDF8"/>
</g>
</g>
</g>
</g>
<defs>
<clipPath id="clip0_1_55">
<rect width="34" height="20.7778" fill="white" transform="translate(0.0499878 0.111084)"/>
</clipPath>
</defs>
</svg>

<svg xmlns="http://www.w3.org/2000/svg" width="35" height="21" fill="none"><g clip-path="url(#a)"><mask id="b" width="35" height="21" x="0" y="0" maskUnits="userSpaceOnUse" style="mask-type:luminance"><path fill="#fff" d="M.05.111h34v20.4h-34V.111Z"/></mask><g mask="url(#b)"><path fill="#38BDF8" fill-rule="evenodd" d="M17.05.111c-4.533 0-7.367 2.267-8.5 6.8 1.7-2.267 3.683-3.117 5.95-2.55 1.293.323 2.218 1.262 3.24 2.3 1.667 1.692 3.597 3.65 7.81 3.65 4.533 0 7.367-2.267 8.5-6.8-1.7 2.267-3.683 3.117-5.95 2.55-1.293-.323-2.218-1.262-3.24-2.3-1.667-1.692-3.596-3.65-7.81-3.65Zm-8.5 10.2c-4.533 0-7.367 2.267-8.5 6.8 1.7-2.267 3.683-3.117 5.95-2.55 1.293.324 2.218 1.262 3.24 2.3 1.667 1.692 3.596 3.65 7.81 3.65 4.533 0 7.367-2.267 8.5-6.8-1.7 2.267-3.683 3.117-5.95 2.55-1.293-.323-2.218-1.262-3.24-2.3-1.667-1.692-3.596-3.65-7.81-3.65Z" clip-rule="evenodd"/></g></g><defs><clipPath id="a"><path fill="#fff" d="M.05.111h34V20.89h-34z"/></clipPath></defs></svg>
